X:0755
T:"The Templehouse Jig" (1st setting) 0755
C:after Chief  F. O'Neill
N:anacrucis added
B:O'Neill's Music Of Ireland (The 1850) Lyon & Healy, Chicago, 1903 edition
Z:FROM O'NEILL'S TO NOTEWORTHY, FROM NOTEWORTHY TO ABC, MIDI AND .TXT BY VINCE
BRENNAN June 2003 (HTTP://WWW.SOSYOURMOM.COM)
I:abc2nwc
M:6/8
L:1/8
K:G
G/2D/2|EFE G2A|B2F G2E|DED F2D|A2D F2D|
EFE G2A|B2F G2A|BcB AGF|BGE E2:|
|:f|(g2f) (e2f)|(g2f) (e2g)|faf d2f|faf d2f|[1g2f e2f|g2f e2d|
BcB AGF|BGE E2:|[2b2g a2f|g2e f2d|BcB AGF|BGE E2|]

